X:1
T:Victimae paschali laudes
T:Victimae paschali laudes
T:André Vierendeels (27/12/10)
C:André Vierendeels
C:(27/12/10)
%%score [ 1 2 3 4 ]
L:1/8
Q:1/4=120
M:4/4
K:F
V:1 treble nm="Soprano" snm="S"
V:2 treble nm="Alto" snm="A"
V:3 treble-8 nm="Tenor" snm="T"
V:4 bass nm="Bass" snm="B"
V:1
 D2 C2 D2 F2 | G2 F2 E2 D2- | D2 A2 G2 E2 | G2 F2 E2 D2- | D8 || A2 c2 d2 A2 | G2 A2 A4 | %7
w: Vi- cti- mae pa-|scha- li lau- des|_ im- mo- lent|Chri- sti- a- ni.|_|A- gnus re- de-|mit o- ves:|
 A2 G2 A2 G2 | F2 E2 D4 | z4 F2 G2 | D2 E2 D2 C2- | C2 E2 F2 E2 | D8 || A2 c2 d2 A2 | G2 A2 A4 | %15
w: Chri- stus in- no-|cens Pa- tri|re- con-|ci- li- a- vit-|_ pec- ca- to-|res.|Mors et vi- ta|du- el- lo|
 A2 G2 A2 G2 | F2 E2 D4 | z4 F2 G2 | D2 E2 D2 C2- | C2 E2 F2 E2 | D8 || A,2 C2 D2 F2 | G2 E4 D2 | %23
w: con- fli- xe- re|mi- ran- do:|dux vi-|tae mor- tu- us,|_ re- gnat vi-|vus.|Dic no- bis Ma-|ri- a, _|
 z4 C2 F2 | E2 D2 E2 C2 | D8 || F2 A2 G2 A2 | F2 G2 F2 E2 | D4 D2 G2 | F2 G2 A2 G2 | F2 G2 F2 E2 | %31
w: quid vi-|dis- ti in vi-|a?|Se- pul- chrum Chri-|sti vi- ven- *|tis, et glo-|ri- am vi- di|re- sur- gen- *|
 D8 || A,2 C2 D2 F2 | G2 E4 D2 | z4 C2 F2 | E2 D2 E2 C2 | D8 || F2 A2 G2 A2 | F2 G2 F2 E2 | %39
w: tis:|An- ge- li- cos|tes- tes, _|su- da-|ri- um et ve-|stes.|Sur- re- xit Chris-|tus spes me- *|
 D4 D2 G2 | F2 G2 A2 G2 | F2 G2 F2 E2 | D8 || A2 c2 d2 A2 | A2 G2 A2 A2- | A2 z2 z2 A2 | %46
w: a: prae- ce-|dit su- os in|Ga- li- le- *|am.|Sci- mus Chris- tum|sur- re- xis- se|_ a|
 c2 G2 F2 E2 | D4 C2 F2 | E2 G2 A2 A2- | A2 z2 F2 G2 | F2 E2 D4 || D4 E4- | E2 D2 ^C4 | D8 || %54
w: mor- tu- is ve-|re: tu no-|bis, vi- ctor Rex,|_ mi- se-|re- * re.|A- *|* * men.|_|
 C2 F2 E3 D | D8 |] %56
w: Al- le- lu- *|ia.|
V:2
 z4 D2 C2 | D2 F2 G2 F2 | E2 D4 A2 | G2 E2 G2 F2 | E2 D6 || z4 A2 c2 | d2 A2 G2 A2 | A4 A2 G2 | %8
w: Vi- cti-|mae pa- scha- li|lau- des im-|mo- lent Chri- sti-|a- ni.|A- gnus|re- de- mit o-|ves: Chri- stus|
 A2 G2 F2 E2 | D4 D2 D2 | F2 G2 F2 C2- | C2 A,2 D2 CB, | D8 || z4 A2 c2 | d2 A2 G2 A2 | A4 A2 G2 | %16
w: in- no- cens Pa-|tri re- con-|ci- li- a- vit|_ pec- ca- to- *|res.|Mors et|vi- ta du- el-|lo con- fli-|
 A2 G2 F2 E2 | D4 D2 D2 | F2 G2 F2 C2- | C2 A,2 D2 CB, | D8 || z4 A,2 C2 | D2 F2 G2 E2- | %23
w: xe- re mi- ran-|do: dux vi-|tae mor- tu- us|_ re- gnat vi- *|vus.|Dic no-|bis Ma- ri- a,|
 E2 D2 z4 | C2 F2 E2 D2 | E2 C2 D4 || D2 D2 E2 F2- | F2 D2 D2 C2 | D4 D2 E2 | F2 D2 D2 E2 | %30
w: _ _|quid vi- di- sti|in vi- a?|Se- pul- chrum Chr-|* sti vi- ven-|tis, et glo-|ri- am vi- di|
 F2 D2 D2 =B,C | D8 || z4 A,2 C2 | D2 F2 G2 E2- | E2 D2 z4 | C2 F2 E2 D2 | E2 C2 D4 || %37
w: re- sur gen- * *|tis:|An- ge-|li- cos tes- tes,|_ _|su- da- ri- um|et ve- stes.|
 D2 D2 E2 F2 | F2 D2 D2 C2 | D4 D2 E2 | F2 D2 D2 E2 | F2 D2 D2 =B,C | D8 || z4 A2 c2 | %44
w: Sur- re- xit Chri-|stus spes me- *|a: prae- ce-|dit su- os in|Ga- li- le- * *|am.|Sci- mus|
 d2 A2 A2 G2 | A2 A4 z2 | z2 A2 c2 G2 | F2 E2 D4 | C2 F2 E2 G2 | A2 A2 A2 G2 | D2 ^C2 D4 || F4 E4 | %52
w: Chri- stum sur- re-|xis- se|a mor- tu-|is ve- re:|tu no- * vi-|ctor Rex, mi- se-|re- * re.|A- *|
 =B,4 E4 | F8 || C2 D2 ^C4 | D8 |] %56
w: * men|_|Al- le- lu-|ia.|
V:3
 A8 | A8 | A8 | G6 A2 | A8 || c8 | c8 | c8 | A2 B2 A4 | A8 | A8 | A6 G2 | A8 || c8 | c8 | c8 | %16
w: Vi-|cti-|mae-|pa- scha-|li.|A-|gnus|re-|de- mit o-|ves,|pec-|ca- *|res.|Mors|et|vi-|
 A2 B2 A4 | A8 | A8 | A6 G2 | A8 || F4 A4 | B2 A2 G4 | A4 A2 A2 | G2 A2 G4 | G4 A4 || A4 A4 | %27
w: ta du- el-|lo,|re-|gnat vi-|vus.|Dic no-|bis Ma- ri-|a, quid vi-|di- sti in|vi- a?|Se- pul-|
 A4 A4 | A4 B4 | B2 B2 A2 c2 | A2 G2 A2 G2 | A8 || F4 A4 | B2 A2 G4 | A4 A4 | G2 F2 G2 G2 | %36
w: chrum Chri-|sti vi-|ven- tis, vi- di|re- sur- gen- *|tis:|An- ge-|li- cos tes-|tes, su-|da- ri- um et|
 G4 A4 || A4 A4 | A4 A4 | A4 B4- | B4 A2 c2 | A2 G2 A2 G2 | A8 || A4 A4 | A4 A4 | A4 A4 | A4 A4 | %47
w: ves- tes.-|Sur- re-|xit Chri-|stus spes|_ me- *||a.|Sci- mus|Chri- stum|sur- re-|xis- se|
 A4 A4 | A2 B2 c2 d2 | A4 A2 E2 | A2 G2 A4 || A8 | G8 | A8 || A2 A2 G4 | A8 |] %56
w: a mor-|tu- * us ve-|re: mi- se-|re- * re.|A-||men.|Al- le- lu-|ia.|
V:4
 D,8 | D,8 | D,8 | E,6 D,2 | D,8 || A,8 | A,8 | A,8 | D,2 G,2 D,4 | D,8 | D,6 E,2- | %11
w: Vi-|cti-|mae|pa- scha-|li.|A-|gnus|re-|de- mit o-|ves,|pec- ca-|
 E,2 C,2 D,2 E,G, | D,8 || A,8 | A,8 | A,8 | D,2 G,2 D,4 | D,8 | D,6 E,2- | E,2 C,2 D,2 E,G, | %20
w: * * * to- *|res.|Mors|et|vi-|ta du- el-|lo|re- gnat|_ vi- * * *|
 D,8 || D,4 F,4 | D,2 F,2 E,4 | D,4 F,2 F,2 | G,2 F,2 C,4 | E,4 D,4 || D,4 D,4 | D,4 D,4 | %28
w: vus.|Dic no-|bis Ma- ri-|a, quid vi-|di- sti in|vi- a?|Se- pul-|chrum Chri-|
 D,4 G,4 | G,2 G,2 F,2 E,2 | D,2 B,,2 D,2 E,G, | D,8 || D,4 F,4 | D,2 C,2 E,4 | D,4 F,4 | %35
w: sti vi-|ven- tis, vi- di|re- sur- gen- * *|tis:|An- ge-|li- cos tes-|tes, su-|
 C,2 D,2 C,2 C,2 | E,4 D,4 || D,4 D,4 | D,4 D,4 | D,4 G,4- | G,4 F,2 E,2 | D,2 B,,2 D,2 E,G, | %42
w: da- ri- um et|ves- tes.|Sur- re-|xit Chri-|stus spes|_ me- *||
 D,8 || D,4 D,4 | D,4 D,4 | D,4 D,4 | D,4 D,4 | D,4 F,4 | C,2 D,2 A,,2 B,,2 | D,4 F,2 C,2 | %50
w: a.|Sci- mus|Chri- stm|sur- re-|xis- se|a mor-|tu- * us ve-|re: mi- se-|
 D,2 E,2 D,4 || D,4 C,4 | G,4 E,4 | D,8 || F,2 D,2 G,2 E,2 | D,8 |] %56
w: re- * re.|A- *|* men.|_|Al- le- lu- *|ia.|

